X:1
T:Puttin' on the Style
M:4/4
L:1/8
K:Ab
 E2 AA cc e2| eB BB B3 z| EE BB d2 d2| ff ee c3 z| EE AA c2 e2| ff fd f2 z f|\
 ff fe c2 e2| EE cB A3 z| EE AA cc e2| eB BB B4| EE BB dd ff| fe ee c3 z|\
 AA AA c2 ee| ff fd f3 f| ff fe c2 e2| EE cB A3 z|
